X:1
T:Valses poéticos
T:Allegretto (elegante)
T:Valses poéticos
T:No. 5
T:Enrique Granados
T:OpenScore (CC0)
C:Enrique Granados
Z:OpenScore (CC0)
%%score { ( 1 3 ) | ( 2 4 ) }
L:1/8
Q:1/4=150
M:3/4
K:Bb
V:1 treble nm="Piano" snm="Pno."
V:3 treble 
V:2 bass 
V:4 bass 
V:1
!f!"^Allegretto (elegante)" z2 [F,B,D]2 [F,B,D]2 |"_dim." z2 [F,B,D]2 [F,B,D]2 |: %2
 [gb]2 [gb]2 (!>![gb]2 | [FA]2) !>![df]7/2 [A^c]/ |!>(! !>![df]6-!>)! |!p! [df]6"_rit." | %6
 [eg]2 [eg]2 (!>![eg]2 | [D^F]2) !>![df]7/2 [FA]/ |!>(! !>![GB]6-!>)! |!p! [GB]6"_rit." | %10
 [GB]2 [GB]7/2 [GB]/ | [CE]6 | [GB]2 [GB]7/2 [GB]/ | [B,D]6 | [eg]2 [eg]7/2 ([eg]/ | %15
 [FA]2) [FA]7/2 [FA]/ | [DB]6- | [DB]2 z2 z2!fine! ::!<(! (f_gfbc'_d' | c'b_af!<)!e_d | %20
 ce!>(!_g_abe' | b_afe _d2)!>)! |!<(! (_c_dc_g_ab!<)! |!>(! _a_ge_d _c2)!>)! |1"_rall." B2 B3 =A | %25
 [Fc]6 :|2"_rall." A2 [F_d]3 [Ec] | !fermata![_DB]6!D.C.! |] %28
V:2
 [B,,,B,,]2 z2 z2 | F,,2 z4 |: C,2 [F,CE]2 [F,CE]2 | F,,2 [F,A,E]2 [F,A,E]2 | %4
 B,,2 [F,B,D]2 [F,B,D]2 | (A,G, F,2 D,2) | A,,2 [E,G,C]2 [E,G,C]2 | D,,2 [D,^F,C]2 [D,A,C]2 | %8
 G,,2 [D,G,B,]2 [D,G,B,]2 | (E,D, B,,2 G,,2) | C,,2 E,2 z2 |[K:treble] b6 |[K:bass] F,,2 z2 z2 | %13
[K:treble] f6 |[K:bass] C,2 [F,B,E]2 [F,B,E]2 | F,,2 [F,E]2 [F,E]2 | B,,,2 [F,B,D]2 [F,B,D]2 | %17
 B,,,2 z2 z2 :: (B,,2 [F,_D]2) z2 | (_A,,2 [F,_D]2) z2 | (_A,,2 [E,C]2) z2 | (_D,,2 [F,_D]2) z2 | %22
 (_G,,2 [E,_C]2) z2 | (_G,,2 [_F,B,]2 [E,_C]2) |1 _G,,6 | z2 [F,A,]4 :|2 z2 A,4 | %27
 z2 !fermata![F,_D]4 |] %28
V:3
 x6 | x6 |: x6 | x6 | x6 | x6 | x6 | x6 | x6 | x6 | x6 | x6 | x6 | x6 | x6 | x6 | x6 | x6 :: x6 | %19
 x6 | x6 | x6 | x6 | x6 |1 [=CE]6 | C6 :|2 x6 | x6 |] %28
V:4
 x6 | x6 |: x6 | x6 | x6 | x6 | x6 | x6 | x6 | x6 | x6 |[K:treble] x6 |[K:bass] x6 |[K:treble] x6 | %14
[K:bass] x6 | x6 | x6 | x6 :: x6 | x6 | x6 | x6 | x6 | x6 |1 x6 | F,,6 :|2 F,,6 | B,,,6 |] %28

